<?xml version="1.0" encoding="UTF-8"?>
<map version="1.10" tiledversion="1.12.2-2-geb83ddb9" orientation="orthogonal" renderorder="right-down" width="60" height="60" tilewidth="16" tileheight="16" infinite="0" nextlayerid="7" nextobjectid="11">
 <tileset firstgid="1" name="level1-tileset1" tilewidth="16" tileheight="16" tilecount="900" columns="30">
  <image source="../textures/tilesets/tileset2.png" width="480" height="480"/>
 </tileset>
 <tileset firstgid="901" name="tree" tilewidth="16" tileheight="16" tilecount="64" columns="8">
  <image source="../textures/tree3.png" width="128" height="128"/>
 </tileset>
 <layer id="4" name="Background" width="60" height="60">
  <data encoding="csv">
221,222,221,222,221,222,221,222,221,222,221,222,221,222,221,222,221,222,221,222,221,222,221,222,221,222,221,222,221,222,221,222,221,222,221,222,221,222,221,222,221,222,221,222,221,222,221,222,221,222,221,222,221,222,221,222,221,222,221,222,
251,252,251,252,251,252,251,252,251,252,251,252,251,252,251,252,251,252,251,252,251,252,251,252,251,252,251,252,251,252,251,252,251,252,251,252,251,252,251,252,251,252,251,252,251,252,251,252,251,252,251,252,251,252,251,252,251,252,251,252,
221,222,221,222,221,222,221,222,221,222,221,222,221,222,221,222,221,222,221,222,221,222,221,222,221,222,221,222,221,222,221,222,221,222,221,222,221,222,221,222,221,222,221,222,221,222,221,222,221,222,221,222,221,222,221,222,221,222,221,222,
251,252,251,252,251,252,251,252,251,252,251,252,251,252,251,252,251,252,251,252,251,252,251,252,251,252,251,252,251,252,251,252,251,252,251,252,251,252,251,252,251,252,251,252,251,252,251,252,251,252,251,252,251,252,251,252,251,252,251,252,
221,222,221,222,221,222,221,222,221,222,221,222,221,222,221,222,221,222,221,222,221,222,221,222,221,222,221,222,221,222,221,222,221,222,221,222,221,222,221,222,221,222,221,222,221,222,221,222,221,222,221,222,221,222,221,222,221,222,221,222,
251,252,251,252,251,252,251,252,251,252,251,252,251,252,251,252,251,252,251,252,251,252,251,252,251,252,251,252,251,252,251,252,251,252,251,252,251,252,251,252,251,252,251,252,251,252,251,252,251,252,251,252,251,252,251,252,251,252,251,252,
221,222,221,222,221,222,221,222,221,222,221,222,221,222,221,222,221,222,221,222,221,222,221,222,221,222,221,222,221,222,221,222,221,222,221,222,221,222,221,222,221,222,221,222,221,222,221,222,221,222,221,222,221,222,221,222,221,222,221,222,
251,252,251,252,251,252,251,252,251,252,251,252,251,252,251,252,251,252,251,252,251,252,251,252,251,252,251,252,251,252,251,252,251,252,251,252,251,252,251,252,251,252,251,252,251,252,251,252,251,252,251,252,251,252,251,252,251,252,251,252,
221,222,221,222,221,222,221,222,221,222,221,222,221,222,221,222,221,222,221,222,221,222,221,222,221,222,221,222,221,222,221,222,221,222,221,222,221,222,221,222,221,222,221,222,221,222,221,222,221,222,221,222,221,222,221,222,221,222,221,222,
251,252,251,252,251,252,251,252,251,252,251,252,251,252,251,252,251,252,251,252,251,252,251,252,251,252,251,252,251,252,251,252,251,252,251,252,251,252,251,252,251,252,251,252,251,252,251,252,251,252,251,252,251,252,251,252,251,252,251,252,
221,222,221,222,221,222,221,222,221,222,221,222,221,222,221,222,221,222,221,222,221,222,221,222,221,222,221,222,221,222,221,222,221,222,221,222,221,222,221,222,221,222,221,222,221,222,221,222,221,222,221,222,221,222,221,222,221,222,221,222,
251,252,251,252,251,252,251,252,251,252,251,252,251,252,251,252,251,252,251,252,251,252,251,252,251,252,251,252,251,252,251,252,251,252,251,252,251,252,251,252,251,252,251,252,251,252,251,252,251,252,251,252,251,252,251,252,251,252,251,252,
221,222,221,222,221,222,221,222,221,222,221,222,221,222,221,222,221,222,221,222,221,222,221,222,221,222,221,222,221,222,221,222,221,222,221,222,221,222,221,222,221,222,221,222,221,222,221,222,221,222,221,222,221,222,221,222,221,222,221,222,
251,252,251,252,251,252,251,252,251,252,251,252,251,252,251,252,251,252,251,252,251,252,251,252,251,252,251,252,251,252,251,252,251,252,251,252,251,252,251,252,251,252,251,252,251,252,251,252,251,252,251,252,251,252,251,252,251,252,251,252,
221,222,221,222,221,222,221,222,221,222,221,222,221,222,221,222,221,222,221,222,221,222,221,222,221,222,221,222,221,222,221,222,221,222,221,222,221,222,221,222,221,222,221,222,221,222,221,222,221,222,221,222,221,222,221,222,221,222,221,222,
251,252,251,252,251,252,251,252,251,252,251,252,251,252,251,252,251,252,251,252,251,252,251,252,251,252,251,252,251,252,251,252,251,252,251,252,251,252,251,252,251,252,251,252,251,252,251,252,251,252,251,252,251,252,251,252,251,252,251,252,
221,222,221,222,221,222,221,222,221,222,221,222,221,222,221,222,221,222,221,222,221,222,221,222,221,222,221,222,221,222,221,222,221,222,221,222,221,222,221,222,221,222,221,222,221,222,221,222,221,222,221,222,221,222,221,222,221,222,221,222,
251,252,251,252,251,252,251,252,251,252,251,252,251,252,251,252,251,252,251,252,251,252,251,252,251,252,251,252,251,252,251,252,251,252,251,252,251,252,251,252,251,252,251,252,251,252,251,252,251,252,251,252,251,252,251,252,251,252,251,252,
221,222,221,222,221,222,221,222,221,222,221,222,221,222,221,222,221,222,221,222,221,222,221,222,221,222,221,222,221,222,221,222,221,222,221,222,221,222,221,222,221,222,221,222,221,222,221,222,221,222,221,222,221,222,221,222,221,222,221,222,
251,252,251,252,251,252,251,252,251,252,251,252,251,252,251,252,251,252,251,252,251,252,251,252,251,252,251,252,251,252,251,252,251,252,251,252,251,252,251,252,251,252,251,252,251,252,251,252,251,252,251,252,251,252,251,252,251,252,251,252,
221,222,221,222,221,222,221,222,221,222,221,222,221,222,221,222,221,222,221,222,221,222,221,222,221,222,221,222,221,222,221,222,221,222,221,222,221,222,221,222,221,222,221,222,221,222,221,222,221,222,221,222,221,222,221,222,221,222,221,222,
251,252,251,252,251,252,251,252,251,252,251,252,251,252,251,252,251,252,251,252,251,252,251,252,251,252,251,252,251,252,251,252,251,252,251,252,251,252,251,252,251,252,251,252,251,252,251,252,251,252,251,252,251,252,251,252,251,252,251,252,
221,222,221,222,221,222,221,222,221,222,221,222,221,222,221,222,221,222,221,222,221,222,221,222,221,222,221,222,221,222,221,222,221,222,221,222,221,222,221,222,221,222,221,222,221,222,221,222,221,222,221,222,221,222,221,222,221,222,221,222,
251,252,251,252,251,252,251,252,251,252,251,252,251,252,251,252,251,252,251,252,251,252,251,252,251,252,251,252,251,252,251,252,251,252,251,252,251,252,251,252,251,252,251,252,251,252,251,252,251,252,251,252,251,252,251,252,251,252,251,252,
221,222,221,222,221,222,221,222,221,222,221,222,221,222,221,222,221,222,221,222,221,222,221,222,221,222,221,222,221,222,221,222,221,222,221,222,221,222,221,222,221,222,221,222,221,222,221,222,221,222,221,222,221,222,221,222,221,222,221,222,
251,252,251,252,251,252,251,252,251,252,251,252,251,252,251,252,251,252,251,252,251,252,251,252,251,252,251,252,251,252,251,252,251,252,251,252,251,252,251,252,251,252,251,252,251,252,251,252,251,252,251,252,251,252,251,252,251,252,251,252,
221,222,221,222,221,222,221,222,221,222,221,222,221,222,221,222,221,222,221,222,221,222,221,222,221,222,221,222,221,222,221,222,221,222,221,222,221,222,221,222,221,222,221,222,221,222,221,222,221,222,221,222,221,222,221,222,221,222,221,222,
251,252,251,252,251,252,251,252,251,252,251,252,251,252,251,252,251,252,251,252,251,252,251,252,251,252,251,252,251,252,251,252,251,252,251,252,251,252,251,252,251,252,251,252,251,252,251,252,251,252,251,252,251,252,251,252,251,252,251,252,
221,222,221,222,221,222,221,222,221,222,221,222,221,222,221,222,221,222,221,222,221,222,221,222,221,222,221,222,221,222,221,222,221,222,221,222,221,222,221,222,221,222,221,222,221,222,221,222,221,222,221,222,221,222,221,222,221,222,221,222,
251,252,251,252,251,252,251,252,251,252,251,252,251,252,251,252,251,252,251,252,251,252,251,252,251,252,251,252,251,252,251,252,251,252,251,252,251,252,251,252,251,252,251,252,251,252,251,252,251,252,251,252,251,252,251,252,251,252,251,252,
221,222,221,222,221,222,221,222,221,222,221,222,221,222,221,222,221,222,221,222,221,222,221,222,221,222,221,222,221,222,221,222,221,222,221,222,221,222,221,222,221,222,221,222,221,222,221,222,221,222,221,222,221,222,221,222,221,222,221,222,
251,252,251,252,251,252,251,252,251,252,251,252,251,252,251,252,251,252,251,252,251,252,251,252,251,252,251,252,251,252,251,252,251,252,251,252,251,252,251,252,251,252,251,252,251,252,251,252,251,252,251,252,251,252,251,252,251,252,251,252,
221,222,221,222,221,222,221,222,221,222,221,222,221,222,221,222,221,222,221,222,221,222,221,222,221,222,221,222,221,222,221,222,221,222,221,222,221,222,221,222,221,222,221,222,221,222,221,222,221,222,221,222,221,222,221,222,221,222,221,222,
251,252,251,252,251,252,251,252,251,252,251,252,251,252,251,252,251,252,251,252,251,252,251,252,251,252,251,252,251,252,251,252,251,252,251,252,251,252,251,252,251,252,251,252,251,252,251,252,251,252,251,252,251,252,251,252,251,252,251,252,
221,222,221,222,221,222,221,222,221,222,221,222,221,222,221,222,221,222,221,222,221,222,221,222,221,222,221,222,221,222,221,222,221,222,221,222,221,222,221,222,221,222,221,222,221,222,221,222,221,222,221,222,221,222,221,222,221,222,221,222,
251,252,251,252,251,252,251,252,251,252,251,252,251,252,251,252,251,252,251,252,251,252,251,252,251,252,251,252,251,252,251,252,251,252,251,252,251,252,251,252,251,252,251,252,251,252,251,252,251,252,251,252,251,252,251,252,251,252,251,252,
221,222,221,222,221,222,221,222,221,222,221,222,221,222,221,222,221,222,221,222,221,222,221,222,221,222,221,222,221,222,221,222,221,222,221,222,221,222,221,222,221,222,221,222,221,222,221,222,221,222,221,222,221,222,221,222,221,222,221,222,
251,252,251,252,251,252,251,252,251,252,251,252,251,252,251,252,251,252,251,252,251,252,251,252,251,252,251,252,251,252,251,252,251,252,251,252,251,252,251,252,251,252,251,252,251,252,251,252,251,252,251,252,251,252,251,252,251,252,251,252,
221,222,221,222,221,222,221,222,221,222,221,222,221,222,221,222,221,222,221,222,221,222,221,222,221,222,221,222,221,222,221,222,221,222,221,222,221,222,221,222,221,222,221,222,221,222,221,222,221,222,221,222,221,222,221,222,221,222,221,222,
251,252,251,252,251,252,251,252,251,252,251,252,251,252,251,252,251,252,251,252,251,252,251,252,251,252,251,252,251,252,251,252,251,252,251,252,251,252,251,252,251,252,251,252,251,252,251,252,251,252,251,252,251,252,251,252,251,252,251,252,
221,222,221,222,221,222,221,222,221,222,221,222,221,222,221,222,221,222,221,222,221,222,221,222,221,222,221,222,221,222,221,222,221,222,221,222,221,222,221,222,221,222,221,222,221,222,221,222,221,222,221,222,221,222,221,222,221,222,221,222,
251,252,251,252,251,252,251,252,251,252,251,252,251,252,251,252,251,252,251,252,251,252,251,252,251,252,251,252,251,252,251,252,251,252,251,252,251,252,251,252,251,252,251,252,251,252,251,252,251,252,251,252,251,252,251,252,251,252,251,252,
221,222,221,222,221,222,221,222,221,222,221,222,221,222,221,222,221,222,221,222,221,222,221,222,221,222,221,222,221,222,221,222,221,222,221,222,221,222,221,222,221,222,221,222,221,222,221,222,221,222,221,222,221,222,221,222,221,222,221,222,
251,252,251,252,251,252,251,252,251,252,251,252,251,252,251,252,251,252,251,252,251,252,251,252,251,252,251,252,251,252,251,252,251,252,251,252,251,252,251,252,251,252,251,252,251,252,251,252,251,252,251,252,251,252,251,252,251,252,251,252,
221,222,221,222,221,222,221,222,221,222,221,222,221,222,221,222,221,222,221,222,221,222,221,222,221,222,221,222,221,222,221,222,221,222,221,222,221,222,221,222,221,222,221,222,221,222,221,222,221,222,221,222,221,222,221,222,221,222,221,222,
251,252,251,252,251,252,251,252,251,252,251,252,251,252,251,252,251,252,251,252,251,252,251,252,251,252,251,252,251,252,251,252,251,252,251,252,251,252,251,252,251,252,251,252,251,252,251,252,251,252,251,252,251,252,251,252,251,252,251,252,
221,222,221,222,221,222,221,222,221,222,221,222,221,222,221,222,221,222,221,222,221,222,221,222,221,222,221,222,221,222,221,222,221,222,221,222,221,222,221,222,221,222,221,222,221,222,221,222,221,222,221,222,221,222,221,222,221,222,221,222,
251,252,251,252,251,252,251,252,251,252,251,252,251,252,251,252,251,252,251,252,251,252,251,252,251,252,251,252,251,252,251,252,251,252,251,252,251,252,251,252,251,252,251,252,251,252,251,252,251,252,251,252,251,252,251,252,251,252,251,252,
221,222,221,222,221,222,221,222,221,222,221,222,221,222,221,222,221,222,221,222,221,222,221,222,221,222,221,222,221,222,221,222,221,222,221,222,221,222,221,222,221,222,221,222,221,222,221,222,221,222,221,222,221,222,221,222,221,222,221,222,
251,252,251,252,251,252,251,252,251,252,251,252,251,252,251,252,251,252,251,252,251,252,251,252,251,252,251,252,251,252,251,252,251,252,251,252,251,252,251,252,251,252,251,252,251,252,251,252,251,252,251,252,251,252,251,252,251,252,251,252,
221,222,221,222,221,222,221,222,221,222,221,222,221,222,221,222,221,222,221,222,221,222,221,222,221,222,221,222,221,222,221,222,221,222,221,222,221,222,221,222,221,222,221,222,221,222,221,222,221,222,221,222,221,222,221,222,221,222,221,222,
251,252,251,252,251,252,251,252,251,252,251,252,251,252,251,252,251,252,251,252,251,252,251,252,251,252,251,252,251,252,251,252,251,252,251,252,251,252,251,252,251,252,251,252,251,252,251,252,251,252,251,252,251,252,251,252,251,252,251,252,
221,222,221,222,221,222,221,222,221,222,221,222,221,222,221,222,221,222,221,222,221,222,221,222,221,222,221,222,221,222,221,222,221,222,221,222,221,222,221,222,221,222,221,222,221,222,221,222,221,222,221,222,221,222,221,222,221,222,221,222,
251,252,251,252,251,252,251,252,251,252,251,252,251,252,251,252,251,252,251,252,251,252,251,252,251,252,251,252,251,252,251,252,251,252,251,252,251,252,251,252,251,252,251,252,251,252,251,252,251,252,251,252,251,252,251,252,251,252,251,252,
221,222,221,222,221,222,221,222,221,222,221,222,221,222,221,222,221,222,221,222,221,222,221,222,221,222,221,222,221,222,221,222,221,222,221,222,221,222,221,222,221,222,221,222,221,222,221,222,221,222,221,222,221,222,221,222,221,222,221,222,
251,252,251,252,251,252,251,252,251,252,251,252,251,252,251,252,251,252,251,252,251,252,251,252,251,252,251,252,251,252,251,252,251,252,251,252,251,252,251,252,251,252,251,252,251,252,251,252,251,252,251,252,251,252,251,252,251,252,251,252,
221,222,221,222,221,222,221,222,221,222,221,222,221,222,221,222,221,222,221,222,221,222,221,222,221,222,221,222,221,222,221,222,221,222,221,222,221,222,221,222,221,222,221,222,221,222,221,222,221,222,221,222,221,222,221,222,221,222,221,222,
251,252,251,252,251,252,251,252,251,252,251,252,251,252,251,252,251,252,251,252,251,252,251,252,251,252,251,252,251,252,251,252,251,252,251,252,251,252,251,252,251,252,251,252,251,252,251,252,251,252,251,252,251,252,251,252,251,252,251,252,
221,222,221,222,221,222,221,222,221,222,221,222,221,222,221,222,221,222,221,222,221,222,221,222,221,222,221,222,221,222,221,222,221,222,221,222,221,222,221,222,221,222,221,222,221,222,221,222,221,222,221,222,221,222,221,222,221,222,221,222,
251,252,251,252,251,252,251,252,251,252,251,252,251,252,251,252,251,252,251,252,251,252,251,252,251,252,251,252,251,252,251,252,251,252,251,252,251,252,251,252,251,252,251,252,251,252,251,252,251,252,251,252,251,252,251,252,251,252,251,252
</data>
 </layer>
 <layer id="1" name="Ground" width="60" height="60">
  <data encoding="csv">
1,1,1,0,0,0,0,0,0,0,0,0,0,0,0,0,0,0,0,0,0,0,0,0,0,0,0,0,0,0,0,0,0,0,0,0,0,0,0,0,0,0,0,0,0,0,0,0,0,0,0,0,0,0,0,0,0,0,0,0,
1,1,1,0,0,0,0,0,0,0,0,0,0,0,0,0,0,0,0,0,0,0,0,0,0,0,0,0,0,0,0,0,0,0,0,0,0,0,0,0,0,0,0,0,0,0,0,0,0,0,0,0,0,0,0,0,0,0,0,0,
1,1,1,0,0,0,0,0,0,0,0,0,0,0,0,0,0,0,0,0,0,0,0,0,0,0,0,0,0,0,0,0,0,0,0,0,0,0,0,0,0,0,0,0,0,0,0,0,0,0,0,0,0,0,0,0,0,0,0,0,
1,1,1,0,0,0,0,0,0,0,0,0,0,0,0,0,0,0,0,0,0,0,0,0,0,0,0,0,0,0,0,0,0,0,0,0,0,0,0,0,0,0,0,0,0,0,0,0,0,0,0,0,0,0,0,0,0,0,0,0,
1,1,1,0,0,0,0,0,0,0,0,0,0,0,0,0,0,0,0,0,0,0,0,0,0,0,0,0,0,0,0,0,0,0,0,0,0,0,0,0,0,0,0,0,0,0,0,0,0,0,0,0,0,0,0,0,0,0,0,0,
1,1,1,0,0,0,0,0,0,0,0,0,0,0,0,0,0,0,0,0,0,0,0,0,0,0,0,0,0,0,0,0,0,0,0,0,0,0,0,0,0,0,0,0,0,0,0,0,0,0,0,0,0,0,0,0,0,0,0,0,
1,1,1,0,0,0,0,0,0,0,0,0,0,0,0,0,0,0,0,0,0,0,0,0,0,0,0,0,0,0,0,0,0,0,0,0,0,0,0,0,0,0,0,0,0,0,0,0,0,0,0,0,0,0,0,0,0,0,0,0,
1,1,1,0,0,0,0,0,0,0,0,0,0,0,0,0,0,0,0,0,0,0,0,0,0,0,0,0,0,0,0,0,0,0,0,0,0,0,0,0,0,0,0,0,0,0,0,0,0,0,0,0,0,0,0,0,0,0,0,0,
1,1,1,0,0,0,0,0,0,0,0,0,0,0,0,0,0,0,0,0,0,0,0,0,0,0,0,0,0,0,0,0,0,0,0,0,0,0,0,0,0,0,0,0,0,0,0,0,0,0,0,0,0,0,1,1,1,1,1,1,
1,1,1,0,0,0,0,0,0,0,0,0,0,0,0,0,0,0,0,0,0,0,0,0,0,0,0,0,0,0,0,0,0,0,0,0,0,0,0,0,0,0,0,0,0,0,0,0,0,0,0,0,0,0,1,1,1,1,1,1,
1,1,1,0,0,0,0,0,0,0,0,0,1,1,1,1,1,1,1,1,1,1,1,1,1,1,1,1,1,1,1,1,1,1,1,1,1,1,1,1,1,1,1,1,1,1,1,1,1,1,0,0,0,0,1,1,1,1,1,1,
1,1,1,0,0,0,0,0,0,0,0,0,1,1,1,1,1,1,1,1,1,1,1,1,1,1,1,1,1,1,1,1,1,1,1,1,1,1,1,1,1,1,1,1,1,1,1,1,1,1,0,0,0,0,1,1,1,1,1,1,
1,1,1,0,0,0,0,0,0,0,0,0,1,1,1,1,1,1,1,1,1,1,1,1,1,1,1,1,1,1,1,1,1,1,1,1,1,1,1,1,1,1,1,1,1,1,1,1,1,1,0,0,0,0,0,0,1,1,1,1,
1,1,1,1,1,1,0,0,0,0,0,0,1,1,1,1,1,1,1,1,1,1,1,1,1,1,1,1,1,1,1,1,1,1,1,1,1,1,1,1,1,1,1,1,1,1,1,1,1,1,0,0,0,0,0,0,0,0,1,1,
1,1,1,1,1,1,0,0,0,0,0,0,0,0,0,0,0,0,0,0,0,0,0,0,0,0,0,0,0,0,0,0,0,0,0,0,0,0,0,0,0,0,0,0,0,0,0,0,0,0,0,0,0,0,0,0,0,0,1,1,
1,1,1,0,0,0,0,0,0,0,0,0,0,0,0,0,0,0,0,0,0,0,0,0,0,0,0,0,0,0,0,0,0,0,0,0,0,0,0,0,0,0,0,0,0,0,0,0,0,0,0,0,0,0,0,0,0,0,1,1,
1,1,1,0,0,0,0,0,0,0,0,0,0,0,0,0,0,0,0,0,0,0,0,0,0,0,0,0,0,0,0,0,0,0,0,0,0,0,0,0,0,0,0,0,0,0,0,0,0,0,0,0,0,0,0,0,0,0,1,1,
1,1,1,0,0,0,0,0,0,0,0,0,0,0,0,0,0,0,0,0,0,0,0,0,0,0,0,0,0,0,0,0,0,0,0,0,0,0,0,0,0,0,0,0,0,0,0,0,0,0,0,0,0,0,0,0,0,0,1,1,
1,1,1,0,0,0,0,0,0,0,0,0,0,0,0,0,0,0,0,0,0,0,0,0,0,0,0,0,0,0,0,0,0,0,0,0,0,0,0,0,0,0,0,0,0,0,0,0,0,0,0,0,0,0,0,0,0,0,1,1,
1,1,1,1,1,1,0,0,0,0,0,0,0,0,0,0,0,0,0,0,0,0,0,0,0,0,0,0,0,0,0,0,0,0,0,0,0,0,0,0,0,0,0,0,0,0,0,0,0,0,0,0,0,0,0,0,0,0,1,1,
1,1,1,1,1,1,0,0,0,0,0,0,0,0,0,0,0,0,0,0,0,0,0,0,0,0,0,0,0,0,0,0,0,0,0,0,0,0,0,0,0,0,0,0,0,0,0,0,0,0,0,0,0,0,0,0,0,0,1,1,
1,1,1,0,0,0,0,0,0,0,0,0,0,0,0,0,0,0,0,0,0,0,0,0,0,0,0,0,0,0,0,0,0,0,0,0,0,0,0,0,0,0,0,0,0,0,0,0,0,0,0,0,0,0,0,0,0,0,1,1,
1,1,1,0,0,0,0,0,0,0,0,0,0,0,0,0,0,0,0,0,0,0,0,0,0,0,0,0,0,0,0,0,0,0,0,0,0,0,0,0,0,0,0,0,0,0,0,0,0,0,0,0,0,0,0,0,0,0,1,1,
1,1,1,0,0,0,0,0,0,0,0,0,0,0,0,0,0,0,0,0,0,0,0,0,0,0,0,0,0,0,0,0,0,0,0,0,0,0,0,0,0,0,0,0,0,0,0,0,0,0,0,0,0,0,0,0,0,0,1,1,
1,1,1,0,0,0,0,0,0,0,0,0,0,0,0,0,0,0,0,0,0,0,0,0,0,0,0,0,0,0,0,0,0,0,0,0,0,0,0,0,0,0,0,0,0,0,0,0,0,0,0,0,0,0,0,0,0,0,1,1,
1,1,1,1,1,1,1,1,0,0,0,0,0,0,0,0,0,0,0,0,0,0,0,0,0,0,0,0,0,0,0,0,0,0,0,0,0,0,0,0,0,0,0,0,0,0,0,0,0,0,0,0,0,0,0,0,0,0,1,1,
1,1,1,1,1,1,1,1,0,0,0,0,0,0,0,0,0,0,0,0,0,0,0,0,0,0,0,0,0,0,0,0,0,0,0,0,0,0,0,0,0,0,0,0,0,0,0,0,0,0,0,0,0,0,0,0,0,0,1,1,
1,1,1,1,1,1,1,1,0,0,0,0,0,0,0,0,0,0,0,0,0,0,0,0,0,0,0,0,0,0,0,0,0,0,0,0,0,0,0,0,0,0,0,0,0,0,0,0,0,0,0,0,0,0,0,0,0,0,1,1,
1,1,1,1,1,1,1,1,0,0,0,0,0,0,0,0,0,0,0,0,0,0,0,0,0,0,0,0,0,0,0,0,0,0,0,0,0,0,0,0,0,0,0,0,0,0,0,0,0,0,0,0,0,0,0,0,0,0,1,1,
1,1,1,1,1,1,1,1,0,0,0,0,0,0,0,0,0,0,0,0,0,0,0,0,0,0,0,0,0,0,0,0,0,0,0,0,0,0,0,0,0,0,0,0,0,0,0,0,0,0,0,0,0,0,0,0,0,0,1,1,
1,1,1,1,1,1,1,1,0,0,0,0,0,0,0,0,0,0,0,0,0,0,0,0,0,0,0,0,0,0,0,0,0,0,0,0,0,0,0,0,0,0,0,0,0,0,0,0,0,0,0,0,0,0,0,0,0,0,1,1,
1,1,1,1,1,1,1,1,1,1,1,1,1,1,0,0,0,0,0,0,0,0,0,0,0,0,0,0,0,0,0,0,0,0,0,0,0,0,0,0,0,0,0,0,0,0,0,0,0,0,0,0,0,0,0,0,0,0,1,1,
1,1,1,1,1,1,1,1,1,1,1,1,1,1,0,0,0,0,0,0,0,0,0,0,0,0,0,0,0,0,0,0,0,0,0,0,0,0,0,0,0,0,0,0,0,0,0,0,0,0,0,0,0,0,0,0,0,0,1,1,
1,1,1,1,1,1,1,1,1,1,1,1,1,1,0,0,0,0,0,0,0,0,0,0,0,0,0,0,0,0,0,0,0,0,0,0,0,0,0,0,0,0,0,0,0,0,0,0,0,0,0,0,0,0,0,0,0,0,1,1,
1,1,1,1,1,1,1,1,1,1,1,1,1,1,0,0,0,0,0,0,0,0,0,0,0,0,0,0,0,0,0,0,0,0,0,0,0,0,0,0,0,0,0,0,0,0,0,0,0,0,0,0,0,0,0,0,0,0,1,1,
1,1,1,1,1,1,1,1,1,1,1,1,1,1,0,0,0,0,0,0,0,0,0,0,0,0,0,0,0,0,0,0,0,0,0,0,0,0,0,0,0,0,0,0,0,0,0,0,0,0,0,0,0,0,0,0,0,0,1,1,
1,1,1,1,1,1,1,1,1,1,1,1,1,1,1,1,1,1,1,0,0,0,0,0,1,1,1,1,1,0,0,0,0,0,0,0,0,0,0,0,0,0,0,0,0,0,0,0,0,0,0,0,0,0,0,0,0,0,1,1,
1,1,1,1,1,1,1,1,1,1,1,1,1,1,1,1,1,1,1,0,0,0,0,0,1,1,1,1,1,0,0,0,0,0,0,0,0,0,0,0,0,0,0,0,0,0,0,0,0,0,0,0,0,0,0,0,0,0,1,1,
1,1,1,0,0,0,0,0,0,0,0,0,0,0,0,0,0,0,0,0,0,0,0,0,0,0,0,0,0,0,0,0,0,0,0,0,0,0,0,0,0,0,0,0,0,0,0,0,0,0,0,0,0,0,0,0,0,0,1,1,
1,1,1,0,0,0,0,0,0,0,0,0,0,0,0,0,0,0,0,0,0,0,0,0,0,0,0,0,0,0,0,0,0,0,0,0,0,0,0,0,0,0,0,0,0,0,0,0,0,0,0,0,0,0,0,0,0,0,1,1,
1,1,1,0,0,0,0,0,0,0,0,0,0,0,0,0,0,0,0,0,0,0,0,0,0,0,0,0,0,0,0,0,1,1,1,1,1,0,0,0,0,0,0,0,0,0,0,0,0,0,0,0,0,0,0,0,0,0,1,1,
1,1,1,0,0,0,0,0,0,0,0,0,0,0,0,0,0,0,0,0,0,0,0,0,0,0,0,0,0,0,0,0,1,1,1,1,1,0,0,0,0,0,0,0,0,0,0,0,0,0,0,0,0,0,0,0,0,0,1,1,
1,1,1,0,0,0,0,0,0,0,0,0,0,0,0,0,0,0,0,0,0,0,0,0,0,0,0,0,0,0,0,0,0,0,0,0,0,0,0,0,0,0,0,0,0,0,0,0,0,0,0,0,0,0,0,0,0,0,1,1,
1,1,1,0,0,0,0,0,0,0,0,0,0,0,0,0,0,0,0,0,0,0,0,0,0,0,0,0,0,0,0,0,0,0,0,0,0,0,0,0,1,1,1,1,1,0,0,0,0,0,0,0,0,0,0,0,0,0,1,1,
1,1,1,0,0,0,0,0,0,0,0,0,0,0,0,0,0,0,0,0,0,0,0,0,0,0,0,0,0,0,0,0,0,0,0,0,0,0,0,0,1,1,1,1,1,0,0,0,0,0,0,0,0,0,0,0,0,0,1,1,
1,1,1,0,0,0,0,0,0,0,0,0,0,0,0,0,0,0,0,0,0,0,0,0,0,0,0,0,0,0,0,0,0,0,0,0,0,0,0,0,0,0,0,0,0,0,0,0,0,0,0,0,0,0,0,0,0,0,1,1,
1,1,1,0,0,0,0,0,0,0,0,0,0,0,0,0,0,0,0,0,0,0,0,0,0,0,0,0,0,0,0,0,0,0,0,0,0,0,0,0,0,0,0,0,0,0,0,0,1,1,1,1,1,0,0,0,0,0,1,1,
1,1,1,0,0,0,0,0,0,0,0,0,0,0,0,0,0,0,1,1,1,1,1,1,0,0,0,0,0,0,0,0,0,0,0,0,0,0,0,0,0,0,0,0,0,0,0,0,1,1,1,1,1,0,0,0,0,0,1,1,
1,1,1,0,0,0,0,0,0,0,0,0,0,0,0,0,0,0,1,1,1,1,1,1,0,0,0,0,0,0,0,0,0,0,0,0,0,0,0,0,0,0,0,0,0,0,0,0,0,0,0,0,0,0,0,0,0,0,1,1,
1,1,1,0,0,0,0,0,0,0,0,0,0,0,0,0,0,0,1,1,1,1,1,1,0,0,0,0,0,0,0,0,0,0,0,0,0,0,0,0,0,0,0,0,0,0,0,0,0,0,0,0,0,0,0,0,0,0,1,1,
1,1,1,0,0,0,0,0,0,0,0,0,0,0,0,0,0,0,1,1,1,1,1,1,0,0,0,0,0,0,0,0,0,0,0,0,0,0,0,0,0,0,0,0,0,0,0,0,0,0,0,0,0,0,0,0,0,0,1,1,
1,1,1,0,0,0,0,0,0,0,0,0,0,0,0,0,0,0,1,1,1,1,1,1,0,0,0,0,0,0,0,0,0,0,0,0,0,0,0,0,0,0,0,0,0,0,0,0,0,0,0,0,0,0,0,0,0,0,1,1,
1,1,1,1,1,1,1,1,1,1,1,1,1,1,1,1,1,1,1,1,1,1,1,1,1,1,1,1,1,1,1,1,1,1,1,1,1,1,1,1,1,1,1,1,1,1,1,1,1,1,1,1,1,1,1,1,1,1,1,1,
1,1,1,1,1,1,1,1,1,1,1,1,1,1,1,1,1,1,1,1,1,1,1,1,1,1,1,1,1,1,1,1,1,1,1,1,1,1,1,1,1,1,1,1,1,1,1,1,1,1,1,1,1,1,1,1,1,1,1,1,
1,1,1,1,1,1,1,1,1,1,1,1,1,1,1,1,1,1,1,1,1,1,1,1,1,1,1,1,1,1,1,1,1,1,1,1,1,1,1,1,1,1,1,1,1,1,1,1,1,1,1,1,1,1,1,1,1,1,1,1,
1,1,1,1,1,1,1,1,1,1,1,1,1,1,1,1,1,1,1,1,1,1,1,1,1,1,1,1,1,1,1,1,1,1,1,1,1,1,1,1,1,1,1,1,1,1,1,1,1,1,1,1,1,1,1,1,1,1,1,1,
1,1,1,1,1,1,1,1,1,1,1,1,1,1,1,1,1,1,1,1,1,1,1,1,1,1,1,1,1,1,1,1,1,1,1,1,1,1,1,1,1,1,1,1,1,1,1,1,1,1,1,1,1,1,1,1,1,1,1,1,
1,1,1,1,1,1,1,1,1,1,1,1,1,1,1,1,1,1,1,1,1,1,1,1,1,1,1,1,1,1,1,1,1,1,1,1,1,1,1,1,1,1,1,1,1,1,1,1,1,1,1,1,1,1,1,1,1,1,1,1,
1,1,1,1,1,1,1,1,1,1,1,1,1,1,1,1,1,1,1,1,1,1,1,1,1,1,1,1,1,1,1,1,1,1,1,1,1,1,1,1,1,1,1,1,1,1,1,1,1,1,1,1,1,1,1,1,1,1,1,1,
1,1,1,1,1,1,1,1,1,1,1,1,1,1,1,1,1,1,1,1,1,1,1,1,1,1,1,1,1,1,1,1,1,1,1,1,1,1,1,1,1,1,1,1,1,1,1,1,1,1,1,1,1,1,1,1,1,1,1,1
</data>
 </layer>
 <layer id="5" name="Background1" width="60" height="60">
  <data encoding="csv">
0,0,0,0,0,0,0,0,0,0,0,0,0,0,0,0,0,0,0,0,0,0,0,0,0,0,0,0,0,0,0,0,0,0,0,0,0,0,0,0,0,0,0,0,0,0,0,0,0,0,0,0,0,0,0,0,0,0,0,0,
0,0,0,0,0,0,0,0,0,0,0,0,0,0,0,0,0,0,0,0,0,0,0,0,0,0,0,0,0,0,0,0,0,0,0,0,0,0,0,0,0,0,0,0,0,0,0,0,0,0,0,0,0,0,0,0,0,0,0,0,
0,0,0,0,0,0,0,0,0,0,0,0,0,0,0,0,0,0,0,0,0,0,0,0,0,0,0,0,0,0,0,0,0,0,0,0,0,0,0,0,0,0,0,0,0,0,0,0,0,0,0,0,0,0,0,0,0,0,0,0,
0,0,0,0,0,0,0,0,0,0,0,0,0,0,0,0,0,0,0,0,0,0,0,0,0,0,0,0,0,0,0,0,0,0,0,0,0,0,0,0,0,0,0,0,0,0,0,0,0,0,0,0,0,0,0,0,0,0,0,0,
0,0,0,0,0,0,0,0,0,0,0,0,0,0,0,0,0,0,0,0,0,0,0,0,0,0,0,0,0,0,0,0,0,0,0,0,0,0,0,0,0,0,0,0,0,0,0,0,0,0,0,0,0,0,0,0,0,0,0,0,
0,0,0,0,0,0,0,0,0,0,0,0,0,0,0,0,0,0,0,0,0,0,0,0,0,0,0,0,0,0,0,0,0,0,0,0,0,0,0,0,0,0,0,0,0,0,0,0,0,0,0,0,0,0,0,0,0,0,0,0,
0,0,0,0,0,0,0,0,0,0,0,0,0,0,0,0,0,0,0,0,0,0,0,0,0,0,0,0,0,0,0,0,0,0,0,0,0,0,0,0,0,0,0,0,0,0,0,0,0,0,0,0,0,0,0,0,0,0,0,0,
0,0,0,0,0,0,0,0,0,0,0,0,0,0,0,0,0,0,0,0,0,0,0,0,0,0,0,0,0,0,0,0,0,0,0,0,0,0,0,0,0,0,0,0,0,0,0,0,0,0,0,0,0,0,0,0,0,0,0,0,
0,0,0,0,0,0,0,0,0,0,0,0,0,0,0,0,0,0,0,0,0,0,0,0,0,0,0,0,0,0,0,0,0,0,0,0,0,0,0,0,0,0,0,0,0,0,0,0,0,0,0,0,0,0,0,0,0,0,0,0,
0,0,0,0,0,0,0,0,0,0,0,0,0,0,0,0,0,0,0,0,0,0,0,0,0,0,0,0,0,0,0,0,0,0,0,0,0,0,0,0,0,0,0,0,0,0,0,0,0,0,0,0,0,0,0,0,0,0,0,0,
0,0,0,0,0,0,0,0,0,0,0,0,0,0,0,0,0,0,0,0,0,0,0,0,0,0,0,0,0,0,0,0,0,0,0,0,0,0,0,0,0,0,0,0,0,0,0,0,0,0,0,0,0,0,0,0,0,0,0,0,
0,0,0,0,0,0,0,0,0,0,0,0,0,0,0,0,0,0,0,0,0,0,0,0,0,0,0,0,0,0,0,0,0,0,0,0,0,0,0,0,0,0,0,0,0,0,0,0,0,0,0,0,0,0,0,0,0,0,0,0,
0,0,0,0,0,0,0,0,0,0,0,0,0,0,0,0,0,0,0,0,0,0,0,0,0,0,0,0,0,0,0,0,0,0,0,0,0,0,0,0,0,0,0,0,0,0,0,0,0,0,0,0,0,0,0,0,0,0,0,0,
0,0,0,0,0,0,0,0,0,0,0,0,0,0,0,0,0,0,0,0,0,0,0,0,0,0,0,0,0,0,0,0,0,0,0,0,0,0,0,0,0,0,0,0,0,0,0,0,0,0,0,0,0,0,0,0,0,0,0,0,
0,0,0,0,0,0,0,0,0,0,0,0,0,0,0,0,0,0,0,0,0,0,0,0,0,0,0,0,0,0,0,0,0,0,0,0,0,0,0,0,0,0,0,0,0,0,0,0,0,0,0,0,0,0,0,0,0,0,0,0,
0,0,0,0,0,0,0,0,0,0,0,0,0,0,0,0,0,0,0,0,0,0,0,0,0,0,0,0,0,0,0,0,0,0,0,0,0,0,0,0,0,0,0,0,0,0,0,0,0,0,0,0,0,0,0,0,0,0,0,0,
0,0,0,0,0,0,0,0,0,0,0,0,0,0,0,0,0,0,0,0,0,0,0,0,0,0,0,0,0,0,0,0,0,0,0,0,0,0,0,0,0,0,0,0,0,0,0,0,0,0,0,0,0,0,0,0,0,0,0,0,
0,0,0,0,0,0,0,0,0,0,0,0,0,0,0,0,0,0,0,0,0,0,0,0,0,0,0,0,0,0,0,0,0,0,0,0,0,0,0,0,0,0,0,0,0,0,0,0,0,0,0,0,0,0,0,0,0,0,0,0,
0,0,0,0,0,0,0,0,0,0,0,0,0,0,0,0,0,0,0,0,0,0,0,0,0,0,0,0,0,0,0,0,0,0,0,0,0,0,0,0,0,0,0,0,0,0,0,0,0,0,0,0,0,0,0,0,0,0,0,0,
0,0,0,0,0,0,0,0,0,0,0,0,0,0,0,0,0,0,0,0,0,0,0,0,0,0,0,0,0,0,0,0,0,0,0,0,0,0,0,0,0,0,0,0,0,0,0,0,0,0,0,0,0,0,0,0,0,0,0,0,
0,0,0,0,0,0,0,0,0,0,0,0,0,0,0,0,0,0,0,0,0,0,0,0,0,0,0,0,0,0,0,0,0,0,0,0,0,0,0,0,0,0,0,0,0,0,0,0,0,0,0,0,0,0,0,0,0,0,0,0,
0,0,0,0,0,0,0,0,0,0,0,0,0,0,0,0,0,0,0,0,0,0,0,0,0,0,0,0,0,0,0,0,0,0,0,0,0,0,0,0,0,0,0,0,0,0,0,0,0,0,0,0,0,0,0,0,0,0,0,0,
0,0,0,0,0,0,0,0,0,0,0,0,0,0,0,0,0,0,0,0,0,0,0,0,0,0,0,0,0,0,0,0,0,0,0,0,0,0,0,0,0,0,0,0,0,0,0,0,0,0,0,0,0,0,0,0,0,0,0,0,
0,0,0,0,0,0,0,0,0,0,0,0,0,0,0,0,0,0,0,0,0,0,0,0,0,0,0,0,0,0,0,0,0,0,0,0,0,0,0,0,0,0,0,0,0,0,0,0,0,0,0,0,0,0,0,0,0,0,0,0,
0,0,0,0,0,0,0,0,0,0,0,0,0,0,0,0,0,0,0,0,0,0,0,0,0,0,0,0,0,0,0,0,0,0,0,0,0,0,0,0,0,0,0,0,0,0,0,0,0,0,0,0,0,0,0,0,0,0,0,0,
0,0,0,0,0,0,0,0,0,0,0,0,0,0,0,0,0,0,0,0,0,0,0,0,0,0,0,0,0,0,0,0,0,0,0,0,0,0,0,0,0,0,0,0,0,0,0,0,0,0,0,0,0,0,0,0,0,0,0,0,
0,0,0,0,0,0,0,0,0,0,0,0,0,0,0,0,0,0,0,0,0,0,0,0,0,0,0,0,0,0,0,0,0,0,0,0,0,0,0,0,0,0,0,0,0,0,0,0,0,0,0,0,0,0,0,0,0,0,0,0,
0,0,0,0,0,0,0,0,0,0,0,0,0,0,0,0,0,0,0,0,0,0,0,0,0,0,0,0,0,0,0,0,0,0,0,0,0,0,0,0,0,0,0,0,0,0,0,0,0,0,0,0,0,0,0,0,0,0,0,0,
0,0,0,0,0,0,0,0,0,0,0,0,0,0,0,0,0,0,0,0,0,0,0,0,0,0,0,0,0,0,0,0,0,0,0,0,0,0,0,0,0,0,0,0,0,0,0,0,0,0,0,0,0,0,0,0,0,0,0,0,
0,0,0,0,0,0,0,0,0,0,0,0,0,0,0,0,0,0,0,0,0,0,0,0,0,0,0,0,0,0,0,0,0,0,0,0,0,0,0,0,0,0,0,0,0,0,0,0,0,0,0,0,0,0,0,0,0,0,0,0,
0,0,0,0,0,0,0,0,0,0,0,0,0,0,0,0,0,0,0,0,0,0,0,0,0,0,0,0,0,0,0,0,0,0,0,0,0,0,0,0,0,0,0,0,0,0,0,0,0,0,0,0,0,0,0,0,0,0,0,0,
0,0,0,0,0,0,0,0,0,0,0,0,0,0,0,0,0,0,0,0,0,0,0,0,0,0,0,0,0,0,0,0,0,0,0,0,0,0,0,0,0,0,0,0,0,0,0,0,0,0,0,0,0,0,0,0,0,0,0,0,
0,0,0,0,0,0,0,0,0,0,0,0,0,0,0,0,0,0,0,0,0,0,0,0,0,0,0,0,0,0,0,0,0,0,0,0,0,0,0,0,0,0,0,0,0,0,0,0,0,0,0,0,0,0,0,0,0,0,0,0,
0,0,0,0,0,0,0,0,0,0,0,0,0,0,0,0,0,0,0,0,0,0,0,0,0,0,0,0,0,0,0,0,0,0,0,0,0,0,0,0,0,0,0,0,0,0,0,0,0,0,0,0,0,0,0,0,0,0,0,0,
0,0,0,0,0,0,0,0,0,0,0,0,0,0,0,0,0,0,0,0,0,0,0,0,0,0,0,0,0,0,0,0,0,0,0,0,0,0,0,0,0,0,0,0,0,0,0,0,0,0,0,0,0,0,0,0,0,0,0,0,
0,0,0,0,0,0,0,0,0,0,0,0,0,0,0,0,0,0,0,0,0,0,0,0,0,0,0,0,0,0,0,0,0,0,0,0,0,0,0,0,0,0,0,0,0,0,0,0,0,0,0,0,0,0,0,0,0,0,0,0,
0,0,0,0,0,0,0,0,0,0,0,0,0,0,0,0,0,0,0,0,0,0,0,0,0,0,0,0,0,0,0,0,0,0,0,0,0,0,0,0,0,0,0,0,0,0,0,0,0,0,0,0,0,0,0,0,0,0,0,0,
0,0,0,0,0,0,0,0,0,0,0,0,0,0,0,0,0,0,0,0,0,0,0,0,0,0,0,0,0,0,0,0,0,0,0,0,0,0,0,0,0,0,0,0,0,0,0,0,0,0,0,0,0,0,0,0,0,0,0,0,
0,0,0,0,0,0,0,0,0,0,0,0,0,0,0,0,0,0,0,0,0,0,0,0,0,0,0,0,0,0,0,0,0,0,0,0,0,0,0,0,0,0,0,0,0,0,0,0,0,0,0,0,0,0,0,0,0,0,0,0,
0,0,0,0,0,0,0,0,0,0,0,0,0,0,0,0,0,0,0,0,0,0,0,0,0,0,0,0,0,0,0,0,0,0,0,0,0,0,0,0,0,0,0,0,0,0,0,0,0,0,0,0,0,0,0,0,0,0,0,0,
0,0,0,0,0,0,0,0,0,0,0,0,0,0,0,0,0,0,0,0,0,0,0,0,0,0,0,0,0,0,0,0,0,0,0,0,0,0,0,0,0,0,0,0,0,0,0,0,0,0,0,0,0,0,0,0,0,0,0,0,
0,0,0,0,0,0,0,0,0,0,0,0,0,0,0,0,0,0,0,0,0,0,0,0,0,0,0,0,0,0,0,0,0,0,0,0,0,0,0,0,0,0,0,0,0,0,0,0,0,0,0,0,0,0,0,0,0,0,0,0,
0,0,0,0,0,0,0,0,0,0,0,0,0,0,0,0,0,0,0,0,0,0,0,0,0,0,0,0,0,0,0,0,0,0,0,0,0,0,0,0,0,0,0,0,0,0,0,0,0,0,0,0,0,0,0,0,0,0,0,0,
0,0,0,0,0,0,0,0,0,0,0,0,0,0,0,0,0,0,0,0,0,0,0,0,0,0,0,0,0,0,0,0,0,0,0,0,0,0,0,0,0,0,0,0,0,0,0,0,0,0,0,0,0,0,0,0,0,0,0,0,
0,0,0,901,902,903,904,905,906,907,908,0,0,0,0,0,0,0,0,0,0,0,0,0,0,0,0,0,0,0,0,0,0,0,0,0,0,0,0,0,0,0,0,0,0,0,0,0,0,0,901,902,0,0,0,0,0,0,0,0,
0,0,0,909,910,911,912,913,914,915,916,0,0,0,0,0,0,0,0,0,0,0,0,0,0,0,0,0,0,0,0,0,0,0,0,0,0,0,0,0,0,0,0,0,0,0,0,0,0,0,909,0,0,0,0,0,0,0,0,0,
0,0,0,917,918,919,920,921,922,923,924,0,0,0,0,0,0,0,0,0,0,0,0,0,0,0,0,0,0,0,0,0,0,0,0,0,0,0,0,0,0,0,0,0,0,0,0,0,0,0,0,0,0,0,0,0,0,0,0,0,
0,0,0,925,926,927,928,929,930,931,932,0,0,0,0,0,0,0,0,0,0,0,0,0,0,0,0,0,0,0,0,0,0,0,0,0,0,0,0,0,0,0,0,0,0,0,0,0,0,0,0,0,0,0,0,0,0,0,0,0,
0,0,0,933,934,935,936,937,938,939,940,902,0,0,0,0,0,0,0,0,0,0,0,0,0,0,0,0,0,0,0,0,0,0,0,0,0,0,0,0,0,0,0,0,0,0,0,0,0,0,0,0,0,0,0,0,0,0,0,0,
0,0,0,941,942,943,944,945,946,947,948,0,0,0,0,0,0,0,0,0,0,0,0,0,0,0,0,0,0,0,0,0,0,0,0,0,0,0,0,0,0,0,0,0,0,0,0,0,0,0,0,0,0,0,0,0,0,0,0,0,
0,0,0,949,950,951,952,953,954,955,956,0,0,0,0,0,0,0,0,0,0,0,0,0,0,0,0,0,0,0,0,0,0,0,0,0,0,0,0,0,0,0,0,0,0,0,0,0,0,0,949,0,0,0,0,0,0,0,0,0,
0,0,0,957,958,959,960,961,962,963,964,0,0,0,0,0,0,0,0,0,0,0,957,958,0,0,0,0,963,964,0,0,0,0,0,0,0,0,0,0,0,0,0,0,0,0,0,0,0,0,957,0,0,0,0,0,0,0,0,0,
0,0,0,0,0,0,0,0,0,0,0,0,0,0,0,0,0,0,0,0,0,0,0,0,0,0,0,0,0,0,0,0,0,0,0,0,0,0,0,0,0,0,0,0,0,0,0,0,0,0,0,0,0,0,0,0,0,0,0,0,
0,0,0,0,0,0,0,0,0,0,0,0,0,0,0,0,0,0,0,0,0,0,0,0,0,0,0,0,0,0,0,0,0,0,0,0,0,0,0,0,0,0,0,0,0,0,0,0,0,0,0,0,0,0,0,0,0,0,0,0,
0,0,0,0,0,0,0,0,0,0,0,0,0,0,0,0,0,0,0,0,0,0,0,0,0,0,0,0,0,0,0,0,0,0,0,0,0,0,0,0,0,0,0,0,0,0,0,0,0,0,0,0,0,0,0,0,0,0,0,0,
0,0,0,0,0,0,0,0,0,0,0,0,0,0,0,0,0,0,0,0,0,0,0,0,0,0,0,0,0,0,0,0,0,0,0,0,0,0,0,0,0,0,0,0,0,0,0,0,0,0,0,0,0,0,0,0,0,0,0,0,
0,0,0,0,0,0,0,0,0,0,0,0,0,0,0,0,0,0,0,0,0,0,0,0,0,0,0,0,0,0,0,0,0,0,0,0,0,0,0,0,0,0,0,0,0,0,0,0,0,0,0,0,0,0,0,0,0,0,0,0,
0,0,0,0,0,0,0,0,0,0,0,0,0,0,0,0,0,0,0,0,0,0,0,0,0,0,0,0,0,0,0,0,0,0,0,0,0,0,0,0,0,0,0,0,0,0,0,0,0,0,0,0,0,0,0,0,0,0,0,0,
0,0,0,0,0,0,0,0,0,0,0,0,0,0,0,0,0,0,0,0,0,0,0,0,0,0,0,0,0,0,0,0,0,0,0,0,0,0,0,0,0,0,0,0,0,0,0,0,0,0,0,0,0,0,0,0,0,0,0,0,
0,0,0,0,0,0,0,0,0,0,0,0,0,0,0,0,0,0,0,0,0,0,0,0,0,0,0,0,0,0,0,0,0,0,0,0,0,0,0,0,0,0,0,0,0,0,0,0,0,0,0,0,0,0,0,0,0,0,0,0
</data>
 </layer>
 <layer id="2" name="Platforms" width="60" height="60">
  <data encoding="csv">
304,304,59,60,0,0,0,0,0,0,0,0,0,0,0,0,0,0,0,0,0,0,0,0,0,0,0,0,0,0,0,0,0,0,0,0,0,0,0,0,0,0,0,0,0,0,0,0,0,0,0,0,0,0,0,0,0,0,0,0,
304,304,89,90,0,0,0,0,0,0,0,0,0,0,0,0,0,0,0,0,0,0,0,0,0,0,0,0,0,0,0,0,0,0,0,0,0,0,0,0,0,0,0,0,0,0,0,0,0,0,0,0,0,0,0,0,0,0,0,0,
304,304,119,120,0,0,0,0,0,0,0,0,0,0,0,0,0,0,0,0,0,0,0,0,0,0,0,0,0,0,0,0,0,0,0,0,0,0,0,0,0,0,0,0,0,0,0,0,0,0,0,0,0,0,0,0,0,0,0,0,
304,304,59,60,0,0,0,0,0,0,0,0,0,0,0,0,0,0,0,0,0,0,0,0,0,0,0,0,0,0,0,0,0,0,0,0,0,0,0,0,0,0,0,0,0,0,0,0,0,0,0,0,0,0,0,0,0,0,0,0,
304,304,89,90,0,0,0,0,0,0,0,0,0,0,0,0,0,0,0,0,0,0,0,0,0,0,0,0,0,0,0,0,0,0,0,0,0,0,0,0,0,0,0,0,0,0,0,0,0,0,0,0,0,0,0,0,0,0,0,0,
304,304,119,120,0,0,0,0,0,0,0,0,0,0,0,0,0,0,0,0,0,0,0,0,0,0,0,0,0,0,0,0,0,0,0,0,0,0,0,0,0,0,0,0,0,0,0,0,0,0,0,0,0,0,0,0,0,0,0,0,
304,304,59,60,0,0,0,0,0,0,0,0,0,0,0,0,0,0,0,0,0,0,0,0,0,0,0,0,0,0,0,0,0,0,0,0,0,0,0,0,0,0,0,0,0,0,0,0,0,0,0,0,0,0,0,0,0,0,0,0,
304,304,59,60,0,0,0,0,0,0,0,0,0,0,0,0,0,0,0,0,0,0,0,0,0,0,0,0,0,0,0,0,0,0,0,0,0,0,0,0,0,0,0,0,0,0,0,0,0,0,0,0,0,61,62,63,64,65,13,14,
304,304,89,90,0,0,0,0,0,0,0,0,0,0,0,0,0,0,0,0,0,0,0,0,0,0,0,0,0,0,0,0,0,0,0,0,0,0,0,0,0,0,0,0,0,0,0,0,0,0,0,0,0,91,92,93,94,95,43,44,
304,304,119,120,0,0,0,0,0,0,0,0,20,21,21,22,23,22,23,21,22,23,21,22,23,21,22,23,21,22,23,21,22,23,21,22,23,21,22,23,21,22,23,21,22,23,21,21,22,23,0,0,0,86,87,155,155,155,155,124,
304,304,59,60,0,0,0,0,0,0,0,49,50,51,51,52,53,52,53,51,52,53,51,52,53,51,52,53,51,52,53,51,52,53,51,52,53,51,52,53,51,52,53,51,52,53,51,51,52,54,55,0,0,86,87,155,155,155,155,124,
304,304,89,90,0,0,0,0,0,0,0,86,87,88,88,88,88,88,88,88,88,88,88,88,88,88,88,88,88,88,88,88,88,88,88,88,88,88,88,88,88,88,88,88,88,88,88,88,88,59,60,0,0,182,183,336,123,155,155,124,
304,304,89,77,23,24,25,0,0,0,0,86,87,88,88,88,88,88,88,88,88,88,88,88,88,88,88,88,88,88,88,88,88,88,88,88,88,88,88,88,88,88,88,88,88,88,88,88,88,89,90,0,0,212,213,152,183,185,123,124,
304,304,106,52,53,54,55,0,0,0,0,79,80,81,82,83,81,82,83,81,82,83,81,82,83,81,82,83,81,82,83,81,82,83,81,82,83,81,82,83,81,82,83,81,82,83,81,82,83,84,85,0,0,0,0,212,213,215,87,124,
304,304,127,82,83,84,85,0,0,0,0,109,110,111,112,113,111,112,113,111,112,113,111,112,113,111,112,113,111,112,113,111,112,113,111,112,113,111,112,113,111,112,113,111,112,113,111,112,113,114,115,0,0,0,0,0,0,116,117,124,
304,304,89,158,113,114,115,0,0,0,0,0,0,0,0,0,0,0,0,0,0,0,0,0,0,0,0,0,0,0,0,0,0,0,0,0,0,0,0,0,0,0,0,0,0,0,0,0,0,0,0,0,0,0,0,0,0,56,57,124,
304,304,119,120,0,0,0,0,0,0,0,0,0,0,0,0,0,0,0,0,0,0,0,0,0,0,0,0,0,0,0,0,0,0,0,0,0,0,0,0,0,0,0,0,0,0,0,0,0,0,0,0,0,0,0,0,0,86,87,124,
304,304,59,60,0,0,0,0,0,0,0,0,0,0,0,0,0,0,0,0,0,0,0,0,0,0,0,0,0,0,0,0,0,0,0,0,0,0,0,0,0,0,0,0,0,0,0,0,0,0,0,0,0,0,0,0,0,116,117,124,
304,304,89,22,23,24,25,0,0,0,0,0,0,0,0,0,0,0,0,0,0,0,0,0,0,0,0,0,0,0,0,0,0,0,0,0,0,0,0,0,0,0,0,0,0,0,0,0,0,0,0,0,0,0,0,0,0,56,57,124,
304,304,106,52,53,54,55,0,0,0,0,0,0,0,0,0,0,0,0,0,0,0,0,0,0,0,0,0,0,0,0,0,0,0,0,0,0,0,0,0,0,0,0,0,0,0,0,0,0,0,0,0,0,0,0,0,0,86,87,124,
304,304,127,82,83,84,85,0,0,0,0,0,0,0,0,0,0,0,0,0,0,0,0,0,0,0,0,0,0,0,0,0,0,0,0,0,0,0,0,0,0,0,0,0,0,0,0,0,0,0,0,0,0,0,0,0,0,116,117,124,
304,304,89,112,113,114,115,0,0,0,0,0,0,0,0,0,0,0,0,0,0,0,0,0,0,0,0,0,0,0,0,0,0,0,0,0,0,0,0,0,0,0,0,0,0,0,0,0,0,0,0,0,0,0,0,0,0,56,57,124,
304,304,59,60,0,0,0,0,0,0,0,0,0,0,0,0,0,0,0,0,0,0,0,0,0,0,0,0,0,0,0,0,0,0,0,0,0,0,0,0,0,0,0,0,0,0,0,0,0,0,0,0,0,0,0,0,0,86,87,124,
304,304,89,90,0,0,0,0,0,0,0,0,0,0,0,0,0,0,0,0,0,0,0,0,0,0,0,0,0,0,0,0,0,0,0,0,0,0,0,0,0,0,0,0,0,0,0,0,0,0,0,0,0,0,0,0,0,116,117,124,
304,304,76,77,65,66,67,68,69,0,0,0,0,0,0,0,0,0,0,0,0,0,0,0,0,0,0,0,0,0,0,0,0,0,0,0,0,0,0,0,0,0,0,0,0,0,0,0,0,0,0,0,0,0,0,0,0,56,57,124,
304,304,106,94,95,96,97,98,99,0,0,0,0,0,0,0,0,0,0,0,0,0,0,0,0,0,0,0,0,0,0,0,0,0,0,0,0,0,0,0,0,0,0,0,0,0,0,0,0,0,0,0,0,0,0,0,0,86,87,124,
304,304,104,104,104,104,104,89,90,0,0,0,0,0,0,0,0,0,0,0,0,0,0,0,0,0,0,0,0,0,0,0,0,0,0,0,0,0,0,0,0,0,0,0,0,0,0,0,0,0,0,0,0,0,0,0,0,116,117,124,
304,304,104,104,104,104,104,119,120,0,0,0,0,0,0,0,0,0,0,0,0,0,0,0,0,0,0,0,0,0,0,0,0,0,0,0,0,0,0,0,0,0,0,0,0,0,0,0,0,0,0,0,0,0,0,0,0,56,57,124,
304,304,104,104,104,104,104,89,90,0,0,0,0,0,0,0,0,0,0,0,0,0,0,0,0,0,0,0,0,0,0,0,0,0,0,0,0,0,0,0,0,0,0,0,0,0,0,0,0,0,0,0,0,0,0,0,0,86,87,124,
304,304,104,104,104,104,104,119,120,0,0,0,0,0,0,0,0,0,0,0,0,0,0,0,0,0,0,0,0,0,0,0,0,0,0,0,0,0,0,0,0,0,0,0,0,0,0,0,0,0,0,0,0,0,0,0,0,116,117,124,
304,304,104,104,104,104,104,76,77,13,13,14,15,16,17,0,0,0,0,0,0,0,0,0,0,0,0,0,0,0,0,0,0,0,0,0,0,0,0,0,0,0,0,0,0,0,0,0,0,0,0,0,0,0,0,0,0,56,57,124,
304,304,104,104,104,104,104,106,43,43,43,44,45,46,47,0,0,0,0,0,0,0,0,0,0,0,0,0,0,0,0,0,0,0,0,0,0,0,0,0,0,0,0,0,0,0,0,0,0,0,0,0,0,0,0,0,0,86,87,124,
304,304,104,104,104,104,104,104,104,104,104,104,104,89,90,0,0,0,0,0,0,0,0,0,0,0,0,0,0,0,0,0,0,0,0,0,0,0,0,0,0,0,0,0,0,0,0,0,0,0,0,0,0,0,0,0,0,116,117,124,
304,304,104,104,104,104,104,104,104,104,104,104,104,119,120,0,0,0,0,0,0,0,0,0,0,0,0,0,0,0,0,0,0,0,0,0,0,0,0,0,0,0,0,0,0,0,0,0,0,0,0,0,0,0,0,0,0,56,57,124,
304,304,104,104,104,104,104,104,104,104,104,104,104,89,90,0,0,0,0,0,0,0,0,0,0,0,0,0,0,0,0,0,0,0,0,0,0,0,0,0,0,0,0,0,0,0,0,0,0,0,0,0,0,0,0,0,0,86,87,124,
304,304,104,104,104,104,104,104,104,104,104,104,104,119,77,21,22,23,24,25,0,0,0,19,20,21,22,23,24,25,0,0,0,0,0,0,0,0,0,0,0,0,0,0,0,0,0,0,0,0,0,0,0,0,0,0,0,116,117,124,
304,304,104,104,104,104,104,104,104,104,104,104,104,106,45,51,52,53,54,55,0,0,0,49,50,51,52,53,54,55,0,0,0,0,0,0,0,0,0,0,0,0,0,0,0,0,0,0,0,0,0,0,0,0,0,0,0,56,57,124,
304,304,127,335,336,335,336,335,336,334,335,336,336,334,335,336,82,83,84,85,0,0,0,79,80,81,82,83,84,85,0,0,0,0,0,0,0,0,0,0,0,0,0,0,0,0,0,0,0,0,0,0,0,0,0,0,0,86,87,124,
304,304,157,158,366,365,366,365,366,364,365,366,366,364,365,366,112,113,114,115,0,0,0,109,110,111,112,113,114,115,0,0,0,0,0,0,0,0,0,0,0,0,0,0,0,0,0,0,0,0,0,0,0,0,0,0,0,116,117,124,
304,304,119,120,0,0,0,0,0,0,0,0,0,0,0,0,0,0,0,0,0,0,0,0,0,0,0,0,0,0,0,19,20,21,22,23,24,25,0,0,0,0,0,0,0,0,0,0,0,0,0,0,0,0,0,0,0,56,57,124,
304,304,59,60,0,0,0,0,0,0,0,0,0,0,0,0,0,0,0,0,0,0,0,0,0,0,0,0,0,0,0,49,50,51,52,53,54,55,0,0,0,0,0,0,0,0,0,0,0,0,0,0,0,0,0,0,0,86,87,124,
304,304,89,90,0,0,0,0,0,0,0,0,0,0,0,0,0,0,0,0,0,0,0,0,0,0,0,0,0,0,0,79,80,81,82,83,84,85,0,0,0,0,0,0,0,0,0,0,0,0,0,0,0,0,0,0,0,116,117,124,
304,304,119,120,0,0,0,0,0,0,0,0,0,0,0,0,0,0,0,0,0,0,0,0,0,0,0,0,0,0,0,109,110,111,112,113,114,115,0,19,20,21,22,23,24,25,0,0,0,0,0,0,0,0,0,0,0,56,57,124,
304,304,59,60,0,0,0,0,0,0,0,0,0,0,0,0,0,0,0,0,0,0,0,0,0,0,0,0,0,0,0,0,0,0,0,0,0,0,0,49,50,51,52,53,54,55,0,0,0,0,0,0,0,0,0,0,0,86,87,124,
304,304,89,90,0,0,0,0,0,0,0,0,0,0,0,0,0,0,0,0,0,0,0,0,0,0,0,0,0,0,0,901,0,0,0,0,0,0,908,79,80,81,82,83,84,85,0,0,0,0,0,0,0,0,0,0,0,116,117,124,
304,304,119,120,0,0,0,0,0,0,0,0,0,0,0,0,0,0,0,0,0,0,0,0,0,0,0,0,0,0,0,0,0,0,0,0,0,0,916,109,110,111,112,113,114,115,0,19,20,21,22,23,24,25,0,0,0,56,57,124,
304,304,59,60,0,0,0,0,0,0,0,0,0,0,0,0,0,11,12,13,13,14,15,16,0,0,0,0,0,0,0,0,0,0,0,0,0,0,0,0,0,0,0,0,0,0,0,49,50,51,52,53,54,55,0,0,0,86,87,124,
304,304,89,90,0,0,0,0,0,0,0,0,0,0,0,0,0,41,42,43,43,44,45,46,47,0,0,0,0,0,0,0,0,0,0,0,0,0,0,0,0,0,0,0,0,0,0,79,80,81,82,83,84,85,0,0,0,116,117,124,
304,304,119,120,0,0,0,0,0,0,0,0,0,0,0,0,0,86,87,73,73,73,73,59,60,0,0,0,0,0,0,0,0,0,0,0,0,0,0,0,0,0,0,0,0,0,0,109,110,111,112,113,114,115,0,0,0,56,57,124,
304,304,59,60,0,0,0,0,0,0,0,0,0,0,0,0,0,56,57,73,73,73,73,59,60,0,0,0,0,0,0,0,0,0,0,0,0,0,0,0,0,0,0,0,0,0,0,0,0,0,0,0,0,0,0,0,0,86,87,124,
304,304,89,90,0,0,0,0,0,0,0,0,0,0,0,0,0,86,87,73,73,73,73,89,90,0,0,0,0,0,0,949,0,0,0,0,0,0,956,0,0,0,0,0,0,0,0,0,0,0,0,0,0,0,0,0,0,116,117,124,
304,304,119,77,22,23,21,22,23,21,22,0,244,245,244,245,246,71,117,73,73,73,73,119,77,23,21,22,23,21,22,63,64,65,66,67,63,64,65,66,67,21,22,23,21,22,23,21,22,23,21,22,23,21,22,23,21,71,72,124,
304,304,106,51,52,53,51,52,53,51,52,53,274,275,274,275,276,51,102,73,73,73,73,106,52,53,51,52,53,51,52,53,51,52,53,51,52,53,51,52,53,51,52,53,51,52,53,51,52,53,51,52,53,51,52,53,51,95,102,124,
304,304,304,304,304,304,304,304,304,304,304,304,304,304,304,304,304,304,304,304,304,304,304,304,304,304,304,304,304,304,304,304,304,304,304,304,304,304,304,304,304,304,304,304,304,304,304,304,304,304,304,304,304,304,304,304,304,125,304,304,
304,304,304,304,304,304,304,304,304,304,304,304,304,304,304,304,304,304,304,304,304,304,304,304,304,304,304,304,304,304,304,304,304,304,304,304,304,304,304,304,304,304,304,304,304,304,304,304,304,304,304,304,304,304,304,304,304,304,304,304,
304,304,304,304,304,304,304,304,304,304,304,304,304,304,304,304,304,304,304,304,304,304,304,304,304,304,304,304,304,304,304,304,304,304,304,304,304,304,304,304,304,304,304,304,304,304,304,304,304,304,304,304,304,304,304,304,304,304,304,304,
304,304,304,304,304,304,304,304,304,304,304,304,304,304,304,304,304,304,304,304,304,304,304,304,304,304,304,304,304,304,304,304,304,304,304,304,304,304,304,304,304,304,304,304,304,304,304,304,304,304,304,304,304,304,304,304,304,304,304,304,
304,304,304,304,304,304,304,304,304,304,304,304,304,304,304,304,304,304,304,304,304,304,304,304,304,304,304,304,304,304,304,304,304,304,304,304,304,304,304,304,304,304,304,304,304,304,304,304,304,304,304,304,304,304,304,304,304,304,304,304,
304,304,304,304,304,304,304,304,304,304,304,304,304,304,304,304,304,304,304,304,304,304,304,304,304,304,304,304,304,304,304,304,304,304,304,304,304,304,304,304,304,304,304,304,304,304,304,304,304,304,304,304,304,304,304,304,304,304,304,304,
304,304,304,304,304,304,304,304,304,304,304,304,304,304,304,304,304,304,304,304,304,304,304,304,304,304,304,304,304,304,304,304,304,304,304,304,304,304,304,304,304,304,304,304,304,304,304,304,304,304,304,304,304,304,304,304,304,304,304,304
</data>
 </layer>
 <objectgroup id="6" name="Enemies">
  <object id="2" name="snail" x="706" y="800">
   <point/>
  </object>
  <object id="3" name="snail" x="659" y="656">
   <point/>
  </object>
  <object id="4" name="snail" x="503" y="735">
   <point/>
  </object>
  <object id="5" name="snail" x="572" y="732">
   <point/>
  </object>
  <object id="6" name="snail" x="771" y="683">
   <point/>
  </object>
  <object id="7" name="snail" x="879" y="774">
   <point/>
  </object>
  <object id="8" name="snail" x="556" y="795">
   <point/>
  </object>
  <object id="9" name="snail" x="454" y="813">
   <point/>
  </object>
  <object id="10" name="snail" x="799" y="555">
   <point/>
  </object>
 </objectgroup>
 <objectgroup id="3" name="Objects">
  <object id="1" name="PlayerSpawn" x="92" y="795">
   <point/>
  </object>
 </objectgroup>
</map>
